X: 1
T: Scotland the Brave
C: (unknown)
%Date: 1911
O: Scotland
R: march
B: Version from the Concord Slow Scottish Jam session binder 2.
S: arr. B. McOwen, Sept 2001
Z: 2015 John Chambers <jc:trillian.mit.edu>
M: C
L: 1/8
K: A
[|\
"A"A4 A3B | "A"c2A2 c2e2 | "A"a4 "D"a3g | "A"a2e2 "A7"c2A2 |\
"D"d4 f3d | "A"c2e2 c2A2 | "Bm7"B4 e3e | "E7"e2d2 c2B2 |
"A"A4 A3B | "A"c2A2 c2e2 | "A"a4 "D"a3g | "A"a2e2 "A7"c2A2 |\
"D"d4 f3d | "A"c2e2 c2A2 | "E7"B4 A3B | "A"A8 |]
[|\
"A"a4 "D"a3g | "A"a2e2 c2A2 | "A"a4 "D"a3g | "A"a2e2 "A7"c2A2 |\
"D"d4 f3d | "A"c2e2 c2A2 | "Bm7"B4 e3e | "E7"e2d2 c2B2 |
"A"A4 A3B | "A"c2A2 c2e2 | "A"a4 "D"a3g | "A"a2e2 "A7"c2A2 |\
"D"d4 f3d | "A"c2e2 c2A2 | "E7"B4 A3B | "A"A8 |]
